apps/scalable/fontypython.svg

<svg xmlns="http://www.w3.org/2000/svg" style="isolation:isolate" width="256" height="256"><defs><filter id="a" width="270.648" height="254.338" x="-7.32" y="2.95" filterUnits="userSpaceOnUse"><feGaussianBlur xmlns="http://www.w3.org/2000/svg" in="SourceGraphic" stdDeviation="4.294"/><feOffset xmlns="http://www.w3.org/2000/svg" dy="4" result="pf_100_offsetBlur"/><feFlood xmlns="http://www.w3.org/2000/svg" flood-opacity=".4"/><feComposite xmlns="http://www.w3.org/2000/svg" in2="pf_100_offsetBlur" operator="in" result="pf_100_dropShadow"/><feBlend xmlns="http://www.w3.org/2000/svg" in="SourceGraphic" in2="pf_100_dropShadow"/></filter></defs><path fill="#768B94" d="M165.685 11.947c74.055 0 84.639 10.557 84.639 84.544v59.251c0 73.986-10.584 84.543-84.639 84.543h-75.37c-74.055 0-84.639-10.557-84.639-84.543V96.491c0-73.987 10.584-84.544 84.639-84.544h75.37z" filter="url(#a)"/><path fill="#FFF" d="M5.676 126.116v29.626c0 73.986 10.584 84.543 84.639 84.543h75.37c74.055 0 84.639-10.557 84.639-84.543v-29.626H5.676z" opacity=".1"/><path fill="#FFF" d="M128 11.947v228.338h37.685c74.055 0 84.639-10.557 84.639-84.543V96.491c0-73.987-10.584-84.544-84.639-84.544H128z" opacity=".2"/><path fill="#FEFEFE" fill-rule="evenodd" d="M180.463 61.386a26.27 26.27 0 0 1 9.137 1.664 26.791 26.791 0 0 1 7.879 4.551 22.755 22.755 0 0 1 5.672 6.947 19.14 19.14 0 0 1 2.217 8.884c0 1.067-.091 2.125-.272 3.184l-6.432 38.03a62.422 62.422 0 0 1-4.758 15.614 53.378 53.378 0 0 1-3.835 6.938 46.98 46.98 0 0 1-4.795 6.125 41.157 41.157 0 0 1-5.735 5.12 38.234 38.234 0 0 1-6.658 3.917 37.283 37.283 0 0 1-7.509 2.487 39.115 39.115 0 0 1-8.268.86h-35.28l10.313-39.912h19.196l5.165-19.793h-19.187l11.606-44.616h31.544zm-.009 6.441c2.352.009 4.695.434 6.903 1.257a20.384 20.384 0 0 1 6.015 3.474 16.671 16.671 0 0 1 4.089 5.003 12.828 12.828 0 0 1 1.466 5.88c0 .705-.054 1.402-.172 2.089v.009l-6.441 38.04-.009.009a55.366 55.366 0 0 1-4.261 13.994 46.358 46.358 0 0 1-3.365 6.088 39.302 39.302 0 0 1-4.125 5.274 35.257 35.257 0 0 1-4.831 4.315 31.27 31.27 0 0 1-5.518 3.239 30.301 30.301 0 0 1-6.188 2.053c-2.261.48-4.577.724-6.902.715h-26.976l6.993-27.039h19.178l8.522-32.666h-19.187l8.25-31.734h26.559z"/><path d="M116.522 64.605c-17.007 0-31.404 11.04-36.429 26.366h-.067l-.135.537a38.69 38.69 0 0 0-.939 3.69L54.8 187.781h48.371l6.575-25.293h16.235l8.655-33.477h-16.169l6.844-26.232h16.168l9.929-38.174h-34.886z"/><path fill="#FEFEFE" fill-rule="evenodd" d="M155.577 61.386l-11.606 44.616h-16.175l-5.156 19.793h16.157l-10.322 39.912h-16.238L105.66 191H50.632l25.185-96.532c.262-1.285.588-2.569.968-3.827l.724-2.894h.325A41.553 41.553 0 0 1 91.91 69.446a41.518 41.518 0 0 1 24.615-8.06h39.052zM83 92.369c.054-.126.108-.262.153-.389a35.101 35.101 0 0 1 12.566-17.341 35.045 35.045 0 0 1 20.797-6.812h30.73l-8.259 31.734h-16.166l-8.521 32.666h16.174l-6.984 27.039h-16.237l-6.568 25.293H58.964l23.104-88.544c.018-.064.027-.118.045-.181.226-1.14.516-2.262.859-3.374.01-.037.019-.064.028-.091z"/><g opacity=".4"><linearGradient id="b" x1=".517" x2=".517" y2="1"><stop offset="0%" stop-color="#fff"/><stop offset="12.5%" stop-opacity=".098" stop-color="#fff"/><stop offset="92.5%" stop-opacity=".098"/><stop offset="100%" stop-opacity=".498"/></linearGradient><path fill="none" stroke="url(#b)" stroke-linecap="round" stroke-linejoin="round" stroke-width="4.077" d="M165.685 11.947c74.055 0 84.639 10.557 84.639 84.544v59.251c0 73.986-10.584 84.543-84.639 84.543h-75.37c-74.055 0-84.639-10.557-84.639-84.543V96.491c0-73.987 10.584-84.544 84.639-84.544h75.37z" vector-effect="non-scaling-stroke"/></g></svg>

<svg xmlns="http://www.w3.org/2000/svg" style="isolation:isolate" width="256" height="256" viewBox="0 0 256 256">
 <defs>
  <filter id="o0CnQO9cvC3HynvYxbA5LZYpL73jmxxX" width="270.648" height="254.338" x="-7.32" y="2.95" filterUnits="userSpaceOnUse">
   <feGaussianBlur xmlns="http://www.w3.org/2000/svg" in="SourceGraphic" stdDeviation="4.294"/>
   <feOffset xmlns="http://www.w3.org/2000/svg" dx="0" dy="4" result="pf_100_offsetBlur"/>
   <feFlood xmlns="http://www.w3.org/2000/svg" flood-opacity=".4"/>
   <feComposite xmlns="http://www.w3.org/2000/svg" in2="pf_100_offsetBlur" operator="in" result="pf_100_dropShadow"/>
   <feBlend xmlns="http://www.w3.org/2000/svg" in="SourceGraphic" in2="pf_100_dropShadow" mode="normal"/>
  </filter>
 </defs>
 <g filter="url(#o0CnQO9cvC3HynvYxbA5LZYpL73jmxxX)">
  <path fill="#768B94" d="M 165.685 11.947 C 239.74 11.947 250.324 22.504 250.324 96.491 L 250.324 155.742 C 250.324 229.728 239.74 240.285 165.685 240.285 L 90.315 240.285 C 16.26 240.285 5.676 229.728 5.676 155.742 L 5.676 96.491 C 5.676 22.504 16.26 11.947 90.315 11.947 L 165.685 11.947 Z"/>
 </g>
 <g opacity=".1">
  <path fill="#FFFFFF" d="M 5.676 126.116 L 5.676 155.742 C 5.676 229.728 16.26 240.285 90.315 240.285 L 165.685 240.285 C 239.74 240.285 250.324 229.728 250.324 155.742 L 250.324 126.116 L 5.676 126.116 Z"/>
 </g>
 <g opacity=".2">
  <path fill="#FFFFFF" d="M 128 11.947 L 128 240.285 L 165.685 240.285 C 239.74 240.285 250.324 229.728 250.324 155.742 L 250.324 96.491 C 250.324 22.504 239.74 11.947 165.685 11.947 L 128 11.947 Z"/>
 </g>
 <g>
  <path fill="#FEFEFE" fill-rule="evenodd" d="M 180.463 61.386 C 183.584 61.395 186.678 61.956 189.6 63.05 C 192.468 64.109 195.136 65.647 197.479 67.601 C 199.813 69.518 201.74 71.88 203.151 74.548 C 204.599 77.289 205.359 80.338 205.368 83.432 C 205.368 84.499 205.277 85.557 205.096 86.616 L 198.664 124.646 C 197.769 130.038 196.168 135.284 193.906 140.26 C 192.803 142.666 191.518 144.982 190.071 147.198 C 188.641 149.369 187.04 151.423 185.276 153.323 C 183.53 155.204 181.603 156.923 179.541 158.443 C 177.46 159.971 175.226 161.283 172.883 162.36 C 170.476 163.454 167.953 164.287 165.374 164.847 C 162.652 165.426 159.883 165.716 157.106 165.707 L 121.826 165.707 L 132.139 125.795 L 151.335 125.795 L 156.5 106.002 L 137.313 106.002 L 148.919 61.386 L 180.454 61.386 C 180.463 61.386 180.463 61.386 180.463 61.386 Z M 180.454 67.827 C 182.806 67.836 185.149 68.261 187.357 69.084 C 189.546 69.889 191.581 71.065 193.372 72.558 C 195.046 73.942 196.439 75.643 197.461 77.561 C 198.411 79.379 198.918 81.396 198.927 83.441 C 198.927 84.146 198.873 84.843 198.755 85.53 C 198.755 85.53 198.755 85.539 198.755 85.539 L 192.314 123.579 C 192.314 123.579 192.305 123.588 192.305 123.588 C 191.509 128.418 190.08 133.122 188.044 137.582 C 187.076 139.69 185.955 141.725 184.679 143.67 C 183.458 145.543 182.074 147.307 180.554 148.944 C 179.079 150.527 177.46 151.975 175.723 153.259 C 173.995 154.526 172.15 155.611 170.205 156.498 C 168.224 157.402 166.152 158.09 164.017 158.551 C 161.756 159.031 159.44 159.275 157.115 159.266 C 157.115 159.266 157.115 159.266 157.106 159.266 L 130.139 159.266 L 137.132 132.227 L 156.31 132.227 L 164.832 99.561 L 145.645 99.561 L 153.895 67.827 L 180.454 67.827 Z"/>
  <path d="M 116.522 64.605 C 99.515 64.605 85.118 75.645 80.093 90.971 L 80.026 90.971 L 79.891 91.508 C 79.518 92.709 79.208 93.95 78.952 95.198 L 54.8 187.781 L 103.171 187.781 L 109.746 162.488 L 125.981 162.488 L 134.636 129.011 L 118.467 129.011 L 125.311 102.779 L 141.479 102.779 L 151.408 64.605 L 116.522 64.605 Z"/>
  <path fill="#FEFEFE" fill-rule="evenodd" d="M 155.577 61.386 L 143.971 106.002 L 127.796 106.002 L 122.64 125.795 L 138.797 125.795 L 128.475 165.707 L 112.237 165.707 L 105.66 191 L 50.632 191 L 75.817 94.468 C 76.079 93.183 76.405 91.899 76.785 90.641 L 77.509 87.747 L 77.834 87.747 C 80.702 80.446 85.578 74.096 91.91 69.446 C 99.039 64.208 107.669 61.377 116.525 61.386 L 155.577 61.386 Z M 83 92.369 C 83.054 92.243 83.108 92.107 83.153 91.98 C 85.433 85.033 89.83 78.963 95.719 74.639 C 101.752 70.206 109.035 67.818 116.516 67.827 C 116.516 67.827 116.525 67.827 116.525 67.827 L 147.246 67.827 L 138.987 99.561 L 122.821 99.561 L 114.3 132.227 L 130.474 132.227 L 123.49 159.266 L 107.253 159.266 L 100.685 184.559 L 58.964 184.559 L 82.068 96.015 C 82.086 95.951 82.095 95.897 82.113 95.834 C 82.339 94.694 82.629 93.572 82.972 92.46 C 82.982 92.423 82.991 92.396 83 92.369 Z"/>
 </g>
 <g opacity=".4">
  <linearGradient id="_lgradient_159" x1=".517" x2=".517" y1="0" y2="1">
   <stop offset="0%" style="stop-color:rgb(255,255,255)"/>
   <stop offset="12.5%" stop-opacity=".098" style="stop-color:rgb(255,255,255)"/>
   <stop offset="92.5%" stop-opacity=".098" style="stop-color:rgb(0,0,0)"/>
   <stop offset="100%" stop-opacity=".498" style="stop-color:rgb(0,0,0)"/>
  </linearGradient>
  <path fill="none" stroke="url(#_lgradient_159)" stroke-linecap="round" stroke-linejoin="round" stroke-width="4.077" d="M 165.685 11.947 C 239.74 11.947 250.324 22.504 250.324 96.491 L 250.324 155.742 C 250.324 229.728 239.74 240.285 165.685 240.285 L 90.315 240.285 C 16.26 240.285 5.676 229.728 5.676 155.742 L 5.676 96.491 C 5.676 22.504 16.26 11.947 90.315 11.947 L 165.685 11.947 Z" vector-effect="non-scaling-stroke"/>
 </g>
</svg>
